;FLAVOR:Marlin
;TIME:2810
;Filament used: 16.2941m
;Layer height: 0.8
;MINX:56.867
;MINY:69.379
;MINZ:0.32
;MAXX:178.133
;MAXY:165.621
;MAXZ:10.72
;Generated with Cura_SteamEngine main
M140 S60
M105
M190 S60
M104 S210
M105
M109 S210
M82 ;absolute extrusion mode
; Ender 3 Custom Start G-code
G92 E0 ; Reset Extruder
G28 ; Home all axes
G1 Z2.0 F3000 ; Move Z Axis up little to prevent scratching of Heat Bed
G1 X0.1 Y20 Z0.3 F5000.0 ; Move to start position
G1 X0.1 Y200.0 Z0.3 F1500.0 E15 ; Draw the first line
G1 X0.4 Y200.0 Z0.3 F5000.0 ; Move to side a little
G1 X0.4 Y20 Z0.3 F1500.0 E30 ; Draw the second line
G92 E0 ; Reset Extruder
G1 Z2.0 F3000 ; Move Z Axis up little to prevent scratching of Heat Bed
G1 X5 Y20 Z0.3 F5000.0 ; Move over to prevent blob squish
G92 E0
G92 E0
G1 F2700 E-5
;LAYER_COUNT:14
;LAYER:0
M107
G0 F6000 X64.343 Y74.069 Z0.32
G0 X57.731 Y84.035
;TYPE:SKIRT
G1 F2700 E0
G1 F1200 X58.004 Y83.201 E0.11675
G1 X58.227 Y82.58 E0.20453
G1 X58.615 Y81.625 E0.34167
G1 X58.968 Y80.878 E0.45159
G1 X59.319 Y80.19 E0.55435
G1 X59.845 Y79.261 E0.69638
G1 X60.306 Y78.543 E0.8099
G1 X60.705 Y77.961 E0.90377
G1 X61.426 Y77.011 E1.06244
G1 X61.97 Y76.373 E1.17399
G1 X62.421 Y75.872 E1.26367
G1 X63.057 Y75.215 E1.38532
G1 X63.701 Y74.622 E1.50179
G1 X64.343 Y74.069 E1.61452
G1 X65.3 Y73.323 E1.77595
G1 X66.031 Y72.82 E1.894
G1 X66.588 Y72.46 E1.98224
G1 X67.444 Y71.954 E2.11453
G1 X68.211 Y71.558 E2.22937
G1 X68.968 Y71.198 E2.34089
G1 X69.99 Y70.767 E2.48845
G1 X70.788 Y70.483 E2.60114
G1 X71.449 Y70.269 E2.69358
G1 X72.452 Y69.989 E2.83212
G1 X73.237 Y69.818 E2.939
G1 X74.008 Y69.673 E3.04338
G1 X75.153 Y69.512 E3.19721
G1 X76.047 Y69.44 E3.31653
G1 X76.911 Y69.402 E3.43159
G1 X78.297 Y69.379 E3.61601
G1 X157.129 Y69.381 E14.10386
G1 X158.038 Y69.401 E14.22482
G1 X158.893 Y69.441 E14.3387
G1 X159.681 Y69.497 E14.4438
G1 X160.73 Y69.626 E14.58441
G1 X161.484 Y69.762 E14.68634
G1 X162.271 Y69.927 E14.79332
G1 X163.469 Y70.241 E14.95809
G1 X164.281 Y70.506 E15.07172
G1 X164.884 Y70.721 E15.15689
G1 X165.897 Y71.133 E15.30238
G1 X166.661 Y71.495 E15.41486
G1 X167.285 Y71.812 E15.50797
G1 X168.302 Y72.39 E15.6636
G1 X169.078 Y72.893 E15.78663
G1 X169.631 Y73.276 E15.87613
G1 X170.538 Y73.968 E16.0279
G1 X171.123 Y74.467 E16.1302
G1 X171.622 Y74.915 E16.21942
G1 X172.488 Y75.772 E16.38151
G1 X173.105 Y76.459 E16.50436
G1 X173.531 Y76.962 E16.59205
G1 X174.169 Y77.784 E16.73049
G1 X174.656 Y78.487 E16.84426
G1 X175.052 Y79.099 E16.94124
G1 X175.633 Y80.096 E17.09476
G1 X176.011 Y80.838 E17.20555
G1 X176.295 Y81.434 E17.29338
G1 X176.722 Y82.442 E17.43902
G1 X177.025 Y83.287 E17.55845
G1 X177.24 Y83.951 E17.65131
G1 X177.537 Y85.032 E17.80045
G1 X177.723 Y85.893 E17.91764
G1 X177.843 Y86.539 E18.00506
G1 X177.998 Y87.651 E18.15443
G1 X178.07 Y88.528 E18.2715
G1 X178.109 Y89.383 E18.38537
G1 X178.132 Y90.573 E18.54371
G1 X178.133 Y144.59 E25.73017
G1 X178.114 Y145.468 E25.847
G1 X178.069 Y146.417 E25.9734
G1 X178.015 Y147.176 E26.07463
G1 X177.87 Y148.316 E26.22752
G1 X177.706 Y149.196 E26.34661
G1 X177.565 Y149.849 E26.43549
G1 X177.26 Y150.997 E26.59352
G1 X177.013 Y151.75 E26.69895
G1 X176.786 Y152.387 E26.78892
G1 X176.352 Y153.447 E26.9413
G1 X175.981 Y154.225 E27.05597
G1 X175.667 Y154.837 E27.14749
G1 X175.151 Y155.746 E27.28655
G1 X174.734 Y156.393 E27.38895
G1 X174.274 Y157.064 E27.49719
G1 X173.578 Y157.985 E27.65077
G1 X172.997 Y158.666 E27.76986
G1 X172.56 Y159.149 E27.85652
G1 X171.863 Y159.861 E27.98908
G1 X171.256 Y160.416 E28.0985
G1 X170.66 Y160.929 E28.20312
G1 X169.748 Y161.642 E28.35713
G1 X169.051 Y162.124 E28.46987
G1 X168.426 Y162.53 E28.56903
G1 X167.388 Y163.136 E28.72894
G1 X166.648 Y163.512 E28.83937
G1 X166.085 Y163.78 E28.92232
G1 X165.065 Y164.212 E29.06969
G1 X164.672 Y164.358 E29.12547
G1 X164.16 Y164.535 E29.19754
G1 X163.553 Y164.731 E29.2824
G1 X162.523 Y165.016 E29.42458
G1 X162.185 Y165.094 E29.47073
G1 X161.627 Y165.209 E29.54653
G1 X160.923 Y165.338 E29.64175
G1 X159.904 Y165.482 E29.77866
G1 X159.11 Y165.549 E29.88467
G1 X158.085 Y165.598 E30.0212
G1 X156.706 Y165.621 E30.20468
G1 X77.87 Y165.619 E40.69307
G1 X76.961 Y165.599 E40.81403
G1 X76.113 Y165.559 E40.92697
G1 X75.346 Y165.505 E41.02927
G1 X74.297 Y165.379 E41.16983
G1 X73.51 Y165.237 E41.27623
G1 X72.712 Y165.069 E41.38472
G1 X71.529 Y164.759 E41.54742
G1 X70.761 Y164.508 E41.65491
G1 X70.132 Y164.285 E41.7437
G1 X69.046 Y163.842 E41.89974
G1 X68.285 Y163.479 E42.01191
G1 X67.71 Y163.186 E42.09777
G1 X66.735 Y162.634 E42.24683
G1 X66.388 Y162.416 E42.30135
G1 X65.926 Y162.111 E42.375
G1 X65.397 Y161.745 E42.46058
G1 X64.621 Y161.162 E42.58971
G1 X63.96 Y160.606 E42.70462
G1 X63.385 Y160.091 E42.80732
G1 X62.589 Y159.312 E42.95549
G1 X62.019 Y158.684 E43.06833
G1 X61.536 Y158.12 E43.16712
G1 X60.82 Y157.2 E43.32221
G1 X60.332 Y156.494 E43.43639
G1 X59.969 Y155.935 E43.52507
G1 X59.387 Y154.94 E43.67843
G1 X58.975 Y154.135 E43.79874
G1 X58.699 Y153.554 E43.88431
G1 X58.271 Y152.539 E44.03086
G1 X57.97 Y151.697 E44.14982
G1 X57.758 Y151.044 E44.24116
G1 X57.447 Y149.907 E44.39799
G1 X57.28 Y149.122 E44.50476
G1 X57.157 Y148.46 E44.59434
G1 X57.002 Y147.352 E44.74319
G1 X56.926 Y146.426 E44.8668
G1 X56.891 Y145.618 E44.97439
G1 X56.868 Y144.429 E45.13261
G1 X56.867 Y90.412 E52.31906
G1 X56.886 Y89.526 E52.43696
G1 X56.932 Y88.567 E52.56469
G1 X56.984 Y87.835 E52.66232
G1 X57.111 Y86.797 E52.80145
G1 X57.256 Y85.993 E52.91014
G1 X57.424 Y85.2 E53.01798
G1 X57.731 Y84.035 E53.17827
G1 F2700 E48.17827
G0 F6000 X57.867 Y90.426
G1 F2700 E53.17827
G1 F1200 X57.885 Y89.574 E53.29164
G1 X57.931 Y88.615 E53.41937
G1 X57.981 Y87.914 E53.51287
G1 X58.098 Y86.959 E53.64088
G1 X58.235 Y86.201 E53.74335
G1 X58.403 Y85.408 E53.8512
G1 X58.685 Y84.335 E53.9988
G1 X58.945 Y83.539 E54.1102
G1 X59.168 Y82.918 E54.19799
G1 X59.525 Y82.04 E54.32408
G1 X59.859 Y81.333 E54.42811
G1 X60.21 Y80.645 E54.53087
G1 X60.694 Y79.79 E54.66158
G1 X61.131 Y79.108 E54.76934
G1 X61.53 Y78.526 E54.86322
G1 X62.193 Y77.652 E55.00917
G1 X62.713 Y77.042 E55.11581
G1 X63.164 Y76.541 E55.20549
G1 X63.749 Y75.937 E55.31736
G1 X64.354 Y75.38 E55.42676
G1 X64.996 Y74.827 E55.53949
G1 X65.876 Y74.14 E55.68802
G1 X66.574 Y73.66 E55.80072
G1 X67.131 Y73.3 E55.88895
G1 X67.918 Y72.834 E56.01064
G1 X68.64 Y72.462 E56.11869
G1 X69.397 Y72.102 E56.23021
G1 X70.337 Y71.705 E56.36597
G1 X71.096 Y71.434 E56.47319
G1 X71.757 Y71.22 E56.56562
G1 X72.68 Y70.963 E56.69309
G1 X73.421 Y70.801 E56.794
G1 X74.192 Y70.656 E56.89837
G1 X75.246 Y70.508 E57.03997
G1 X76.098 Y70.438 E57.1537
G1 X76.929 Y70.402 E57.26437
G1 X78.297 Y70.379 E57.44639
G1 X157.115 Y70.381 E67.93238
G1 X157.991 Y70.4 E68.04895
G1 X158.846 Y70.44 E68.16282
G1 X159.601 Y70.494 E68.26353
G1 X160.567 Y70.612 E68.393
G1 X161.279 Y70.741 E68.48927
G1 X162.066 Y70.906 E68.59625
G1 X163.168 Y71.194 E68.74778
G1 X163.945 Y71.448 E68.85654
G1 X164.548 Y71.663 E68.94171
G1 X165.48 Y72.042 E69.07556
G1 X166.209 Y72.386 E69.1828
G1 X166.833 Y72.703 E69.27592
G1 X167.768 Y73.235 E69.41904
G1 X168.509 Y73.715 E69.5365
G1 X169.062 Y74.098 E69.62599
G1 X169.896 Y74.734 E69.76553
G1 X170.455 Y75.211 E69.86329
G1 X170.954 Y75.659 E69.95251
G1 X171.75 Y76.448 E70.10162
G1 X172.342 Y77.106 E70.21937
G1 X172.768 Y77.609 E70.30707
G1 X173.355 Y78.364 E70.4343
G1 X173.816 Y79.031 E70.54217
G1 X174.212 Y79.643 E70.63915
G1 X174.747 Y80.56 E70.78039
G1 X175.109 Y81.268 E70.88619
G1 X175.393 Y81.864 E70.97402
G1 X175.786 Y82.791 E71.10797
G1 X176.074 Y83.595 E71.22159
G1 X176.289 Y84.259 E71.31445
G1 X176.562 Y85.253 E71.45159
G1 X176.74 Y86.076 E71.56361
G1 X176.86 Y86.722 E71.65103
G1 X177.002 Y87.745 E71.78843
G1 X177.072 Y88.581 E71.90004
G1 X177.109 Y89.403 E72.00951
G1 X177.134 Y90.815 E72.19739
G1 X177.133 Y144.577 E79.34992
G1 X177.115 Y145.421 E79.46223
G1 X177.07 Y146.37 E79.58863
G1 X177.018 Y147.095 E79.68533
G1 X176.885 Y148.145 E79.82614
G1 X176.729 Y148.985 E79.9398
G1 X176.588 Y149.638 E80.02868
G1 X176.307 Y150.694 E80.17406
G1 X176.071 Y151.414 E80.27487
G1 X175.844 Y152.051 E80.36483
G1 X175.445 Y153.026 E80.50499
G1 X175.091 Y153.769 E80.61448
G1 X174.777 Y154.381 E80.706
G1 X174.303 Y155.217 E80.83385
G1 X173.909 Y155.827 E80.93046
G1 X173.449 Y156.498 E81.0387
G1 X172.809 Y157.346 E81.18004
G1 X172.256 Y157.996 E81.29358
G1 X171.819 Y158.479 E81.38023
G1 X171.177 Y159.133 E81.50216
G1 X170.603 Y159.658 E81.60565
G1 X170.007 Y160.171 E81.71027
G1 X169.169 Y160.827 E81.85185
G1 X168.507 Y161.286 E81.95903
G1 X167.882 Y161.692 E82.05818
G1 X166.926 Y162.249 E82.20538
G1 X166.218 Y162.61 E82.31111
G1 X165.655 Y162.878 E82.39407
G1 X164.717 Y163.274 E82.52952
G1 X163.853 Y163.584 E82.65164
G1 X163.246 Y163.78 E82.73651
G1 X162.298 Y164.041 E82.86732
G1 X161.447 Y164.226 E82.98318
G1 X160.743 Y164.355 E83.0784
G1 X159.806 Y164.487 E83.20429
G1 X159.054 Y164.551 E83.3047
G1 X158.067 Y164.598 E83.43616
G1 X156.706 Y164.621 E83.61725
G1 X77.884 Y164.619 E94.10378
G1 X77.008 Y164.6 E94.22035
G1 X76.16 Y164.56 E94.33329
G1 X75.424 Y164.508 E94.43145
G1 X74.458 Y164.392 E94.56089
G1 X73.716 Y164.258 E94.66121
G1 X72.918 Y164.09 E94.7697
G1 X71.83 Y163.805 E94.91933
G1 X71.095 Y163.566 E95.02216
G1 X70.466 Y163.343 E95.11094
G1 X69.467 Y162.935 E95.25451
G1 X68.739 Y162.588 E95.3618
G1 X68.164 Y162.295 E95.44766
G1 X67.267 Y161.787 E95.5848
G1 X66.92 Y161.569 E95.63932
G1 X66.495 Y161.288 E95.70711
G1 X65.966 Y160.922 E95.79269
G1 X65.252 Y160.386 E95.91147
G1 X64.628 Y159.861 E96.01996
G1 X64.053 Y159.346 E96.12265
G1 X63.32 Y158.629 E96.25907
G1 X62.778 Y158.033 E96.36624
G1 X62.295 Y157.469 E96.46503
G1 X61.637 Y156.623 E96.60762
G1 X61.171 Y155.949 E96.71664
G1 X60.808 Y155.39 E96.80531
G1 X60.272 Y154.475 E96.94639
G1 X59.878 Y153.706 E97.06135
G1 X59.602 Y153.125 E97.14692
G1 X59.208 Y152.191 E97.28179
G1 X58.921 Y151.388 E97.39524
G1 X58.709 Y150.735 E97.48657
G1 X58.423 Y149.689 E97.63084
G1 X58.264 Y148.94 E97.73271
G1 X58.141 Y148.278 E97.82229
G1 X57.998 Y147.258 E97.95932
G1 X57.925 Y146.375 E98.0772
G1 X57.891 Y145.598 E98.18067
G1 X57.866 Y144.187 E98.36842
G1 X57.867 Y90.426 E105.52081
G0 F6000 X58.867 Y90.439
G1 F1200 X58.884 Y89.622 E105.62953
G1 X58.93 Y88.663 E105.75726
G1 X58.978 Y87.993 E105.84662
G1 X59.084 Y87.122 E105.96336
G1 X59.213 Y86.408 E106.05989
G1 X59.381 Y85.615 E106.16773
G1 X59.638 Y84.636 E106.30239
G1 X59.886 Y83.877 E106.40862
G1 X60.109 Y83.256 E106.4964
G1 X60.435 Y82.454 E106.61158
G1 X60.75 Y81.787 E106.70972
G1 X61.101 Y81.099 E106.81247
G1 X61.542 Y80.318 E106.9318
G1 X61.956 Y79.674 E107.03365
G1 X62.355 Y79.092 E107.12753
G1 X62.96 Y78.294 E107.26076
G1 X63.456 Y77.711 E107.36259
G1 X63.907 Y77.21 E107.45228
G1 X64.442 Y76.658 E107.55455
G1 X65.006 Y76.137 E107.6567
G1 X65.648 Y75.584 E107.76943
G1 X66.452 Y74.957 E107.90507
G1 X67.116 Y74.5 E108.01231
G1 X67.673 Y74.14 E108.10055
G1 X68.392 Y73.714 E108.21173
G1 X69.07 Y73.365 E108.31318
G1 X69.827 Y73.005 E108.4247
G1 X70.685 Y72.642 E108.54865
G1 X71.404 Y72.385 E108.65023
G1 X72.065 Y72.171 E108.74266
G1 X72.908 Y71.937 E108.85906
G1 X73.606 Y71.784 E108.95412
G1 X74.377 Y71.639 E109.0585
G1 X75.34 Y71.504 E109.18787
G1 X76.15 Y71.437 E109.296
G1 X76.947 Y71.402 E109.40213
G1 X78.297 Y71.379 E109.58176
G1 X157.101 Y71.381 E120.06589
G1 X157.945 Y71.398 E120.1782
G1 X158.8 Y71.438 E120.29207
G1 X159.521 Y71.49 E120.38825
G1 X160.403 Y71.599 E120.50648
G1 X161.074 Y71.719 E120.59717
G1 X161.861 Y71.884 E120.70415
G1 X162.867 Y72.148 E120.84252
G1 X163.609 Y72.39 E120.94635
G1 X164.212 Y72.605 E121.03152
G1 X165.063 Y72.951 E121.15374
G1 X165.756 Y73.278 E121.25568
G1 X166.38 Y73.595 E121.3488
G1 X167.234 Y74.08 E121.47946
G1 X167.939 Y74.537 E121.59124
G1 X168.492 Y74.92 E121.68073
G1 X169.254 Y75.501 E121.80821
G1 X169.787 Y75.955 E121.90136
G1 X170.286 Y76.403 E121.99058
G1 X171.013 Y77.123 E122.1267
G1 X171.579 Y77.752 E122.23928
G1 X172.005 Y78.255 E122.32697
G1 X172.541 Y78.945 E122.44321
G1 X172.976 Y79.574 E122.54496
G1 X173.372 Y80.186 E122.64194
G1 X173.861 Y81.023 E122.7709
G1 X174.206 Y81.698 E122.87176
G1 X174.49 Y82.294 E122.95959
G1 X174.849 Y83.141 E123.08198
G1 X175.122 Y83.903 E123.18967
G1 X175.337 Y84.567 E123.28252
G1 X175.587 Y85.475 E123.40782
G1 X175.756 Y86.258 E123.51439
G1 X175.876 Y86.904 E123.6018
G1 X176.007 Y87.838 E123.72728
G1 X176.073 Y88.634 E123.83354
G1 X176.109 Y89.422 E123.93849
G1 X176.134 Y90.815 E124.12384
G1 X176.133 Y144.563 E131.2745
G1 X176.116 Y145.373 E131.38229
G1 X176.071 Y146.322 E131.50869
G1 X176.021 Y147.015 E131.60113
G1 X175.9 Y147.973 E131.72959
G1 X175.751 Y148.774 E131.83798
G1 X175.61 Y149.427 E131.92686
G1 X175.354 Y150.391 E132.05956
G1 X175.129 Y151.079 E132.15586
G1 X174.902 Y151.716 E132.24583
G1 X174.538 Y152.606 E132.37375
G1 X174.201 Y153.312 E132.47783
G1 X173.887 Y153.924 E132.56934
G1 X173.454 Y154.688 E132.68618
G1 X173.084 Y155.262 E132.77703
G1 X172.624 Y155.933 E132.88527
G1 X172.04 Y156.707 E133.01426
G1 X171.514 Y157.325 E133.12223
G1 X171.077 Y157.808 E133.20889
G1 X170.491 Y158.406 E133.32028
G1 X169.951 Y158.9 E133.41764
G1 X169.355 Y159.413 E133.52226
G1 X168.59 Y160.012 E133.65153
G1 X167.962 Y160.447 E133.75316
G1 X167.337 Y160.853 E133.85232
G1 X166.465 Y161.362 E133.98665
G1 X165.788 Y161.707 E134.08774
G1 X165.225 Y161.975 E134.17069
G1 X164.369 Y162.337 E134.29434
G1 X163.545 Y162.632 E134.41078
G1 X162.938 Y162.828 E134.49564
G1 X162.073 Y163.067 E134.61503
G1 X161.266 Y163.242 E134.72489
G1 X160.562 Y163.371 E134.82011
G1 X159.707 Y163.492 E134.93499
G1 X158.998 Y163.552 E135.02966
G1 X158.049 Y163.598 E135.15606
G1 X156.706 Y163.621 E135.33476
G1 X77.898 Y163.619 E145.81942
G1 X77.055 Y163.601 E145.9316
G1 X76.207 Y163.561 E146.04454
G1 X75.501 Y163.511 E146.1387
G1 X74.62 Y163.405 E146.25676
G1 X73.922 Y163.28 E146.3511
G1 X73.124 Y163.112 E146.45959
G1 X72.131 Y162.851 E146.59619
G1 X71.429 Y162.623 E146.69438
G1 X70.8 Y162.4 E146.78317
G1 X69.888 Y162.028 E146.91421
G1 X69.193 Y161.697 E147.01662
G1 X68.618 Y161.404 E147.10248
G1 X67.799 Y160.94 E147.22771
G1 X67.064 Y160.466 E147.34407
G1 X66.535 Y160.1 E147.42965
G1 X65.883 Y159.611 E147.53807
G1 X65.295 Y159.116 E147.64033
G1 X64.72 Y158.601 E147.74303
G1 X64.051 Y157.947 E147.8675
G1 X63.538 Y157.383 E147.96893
G1 X63.055 Y156.819 E148.06772
G1 X62.453 Y156.046 E148.19806
G1 X62.01 Y155.405 E148.30173
G1 X61.647 Y154.846 E148.3904
G1 X61.157 Y154.01 E148.51932
G1 X60.782 Y153.276 E148.62898
G1 X60.506 Y152.695 E148.71455
G1 X60.146 Y151.843 E148.83761
G1 X59.872 Y151.079 E148.94559
G1 X59.66 Y150.426 E149.03693
G1 X59.399 Y149.471 E149.16864
G1 X59.247 Y148.757 E149.26576
G1 X59.124 Y148.095 E149.35534
G1 X58.993 Y147.164 E149.48042
G1 X58.924 Y146.323 E149.59269
G1 X58.891 Y145.579 E149.69176
G1 X58.866 Y144.187 E149.87699
G1 X58.867 Y90.439 E157.02765
G1 F2700 E152.02765
G0 F6000 X107.899 Y108.014
G0 X105.251 Y111.832
G1 F2700 E157.02765
G1 F1200 X105.086 Y112.202 E157.08155
G1 X104.68 Y113.277 E157.23443
G1 X104.558 Y113.666 E157.28866
G1 X104.058 Y115.667 E157.56306
G1 X103.969 Y116.188 E157.63338
G1 X103.954 Y116.515 E157.67693
G1 X103.954 Y118.644 E157.96018
G1 X103.994 Y119.171 E158.03049
G1 X104.084 Y119.587 E158.08711
G1 X104.674 Y121.695 E158.37834
G1 X104.807 Y122.083 E158.43291
G1 X105.26 Y123.185 E158.59142
G1 X105.442 Y123.561 E158.647
G1 X106.012 Y124.581 E158.80245
G1 X106.236 Y124.932 E158.85785
G1 X106.937 Y125.896 E159.01642
G1 X107.193 Y126.208 E159.07012
G1 X107.991 Y127.075 E159.22688
G1 X108.292 Y127.366 E159.28258
