;FLAVOR:Marlin
;TIME:8257
;Filament used: 47.3212m
;Layer height: 0.8
;MINX:58.58
;MINY:72.5
;MINZ:0.32
;MAXX:176.581
;MAXY:162.5
;MAXZ:114.72
;Generated with Cura_SteamEngine main
M140 S60
M105
M190 S60
M104 S210
M105
M109 S210
M82 ;absolute extrusion mode
; Ender 3 Custom Start G-code
G92 E0 ; Reset Extruder
G28 ; Home all axes
G1 Z2.0 F3000 ; Move Z Axis up little to prevent scratching of Heat Bed
G1 X0.1 Y20 Z0.3 F5000.0 ; Move to start position
G1 X0.1 Y200.0 Z0.3 F1500.0 E15 ; Draw the first line
G1 X0.4 Y200.0 Z0.3 F5000.0 ; Move to side a little
G1 X0.4 Y20 Z0.3 F1500.0 E30 ; Draw the second line
G92 E0 ; Reset Extruder
G1 Z2.0 F3000 ; Move Z Axis up little to prevent scratching of Heat Bed
G1 X5 Y20 Z0.3 F5000.0 ; Move over to prevent blob squish
G92 E0
G92 E0
G1 F2700 E-5
;LAYER_COUNT:144
;LAYER:0
M107
G0 F6000 X65.174 Y76.347 Z0.32
G0 X58.958 Y86.468
;TYPE:SKIRT
G1 F2700 E0
G1 F1200 X59.04 Y86.098 E0.05042
G1 X59.262 Y85.241 E0.1682
G1 X59.424 Y84.696 E0.24384
G1 X59.832 Y83.536 E0.40744
G1 X59.945 Y83.259 E0.44724
G1 X60.438 Y82.197 E0.60301
G1 X60.664 Y81.764 E0.66799
G1 X60.962 Y81.225 E0.74993
G1 X61.169 Y80.872 E0.80437
G1 X61.709 Y80.03 E0.93745
G1 X62.129 Y79.465 E1.03111
G1 X62.578 Y78.906 E1.1265
G1 X62.966 Y78.446 E1.20656
G1 X63.641 Y77.708 E1.33962
G1 X64.439 Y76.97 E1.48423
G1 X65.174 Y76.347 E1.61241
G1 X65.962 Y75.731 E1.74548
G1 X67.15 Y74.975 E1.93282
G1 X67.836 Y74.591 E2.03741
G1 X68.726 Y74.138 E2.17027
G1 X69.02 Y74.003 E2.21331
G1 X69.944 Y73.623 E2.34623
G1 X70.469 Y73.444 E2.42003
G1 X70.912 Y73.304 E2.48184
G1 X71.622 Y73.096 E2.58027
G1 X72.593 Y72.86 E2.71321
G1 X73.477 Y72.711 E2.83248
G1 X74.387 Y72.607 E2.95433
G1 X75.146 Y72.548 E3.05561
G1 X75.926 Y72.511 E3.1595
G1 X76.653 Y72.5 E3.25623
G1 X155.559 Y72.5 E13.75393
G1 X156.169 Y72.509 E13.83509
G1 X156.911 Y72.542 E13.93391
G1 X157.611 Y72.594 E14.02729
G1 X158.381 Y72.67 E14.13023
G1 X159.37 Y72.816 E14.26323
G1 X160.462 Y73.074 E14.41251
G1 X160.994 Y73.225 E14.48609
G1 X161.739 Y73.455 E14.58982
G1 X162.679 Y73.794 E14.72276
G1 X163.646 Y74.236 E14.86421
G1 X164.062 Y74.448 E14.92633
G1 X164.84 Y74.869 E15.04402
G1 X165.697 Y75.385 E15.17711
G1 X166.619 Y76.054 E15.32866
G1 X167.089 Y76.429 E15.40865
G1 X167.695 Y76.935 E15.51368
G1 X168.431 Y77.612 E15.64673
G1 X168.996 Y78.212 E15.75637
G1 X169.523 Y78.828 E15.86422
G1 X169.951 Y79.358 E15.95486
G1 X170.547 Y80.16 E16.08779
G1 X171.136 Y81.11 E16.2365
G1 X171.553 Y81.866 E16.35136
G1 X171.776 Y82.294 E16.41557
G1 X172.202 Y83.199 E16.54865
G1 X172.596 Y84.264 E16.69972
G1 X172.85 Y85.071 E16.81227
G1 X172.981 Y85.522 E16.87476
G1 X173.221 Y86.493 E17.00783
G1 X173.405 Y87.667 E17.16592
G1 X173.471 Y88.278 E17.24768
G1 X173.53 Y88.977 E17.34101
G1 X173.564 Y89.704 E17.43783
G1 X173.582 Y90.835 E17.58832
G1 X173.582 Y105.96 E19.60056
G1 X173.619 Y108.541 E19.94397
G1 X173.723 Y111.012 E20.27301
G1 X173.899 Y113.494 E20.60404
G1 X174.142 Y115.943 E20.93146
G1 X174.458 Y118.411 E21.26248
G1 X174.836 Y120.813 E21.58598
G1 X175.297 Y123.297 E21.9221
G1 X175.811 Y125.687 E22.24733
G1 X176.217 Y127.374 E22.47818
G1 X176.412 Y128.354 E22.61112
G1 X176.528 Y129.347 E22.74412
G1 X176.562 Y130.075 E22.84108
G1 X176.581 Y131.243 E22.9965
G1 X176.58 Y142.848 E24.54043
G1 X176.57 Y143.553 E24.63423
G1 X176.516 Y144.552 E24.76734
G1 X176.382 Y145.542 E24.90025
G1 X176.169 Y146.519 E25.03328
G1 X175.879 Y147.476 E25.16632
G1 X175.514 Y148.407 E25.29936
G1 X175.075 Y149.305 E25.43234
G1 X174.566 Y150.166 E25.56541
G1 X173.99 Y150.983 E25.6984
G1 X173.354 Y151.747 E25.83065
G1 X171.933 Y153.322 E26.11287
G1 X170.127 Y155.439 E26.48308
G1 X169.252 Y156.488 E26.66482
G1 X168.581 Y157.229 E26.79781
G1 X168.038 Y157.751 E26.89802
G1 X167.43 Y158.286 E27.00576
G1 X166.892 Y158.733 E27.09882
G1 X166.098 Y159.341 E27.23187
G1 X165.011 Y160.026 E27.4028
G1 X164.343 Y160.4 E27.50466
G1 X163.452 Y160.853 E27.63764
G1 X163.134 Y160.999 E27.68419
G1 X162.209 Y161.379 E27.81723
G1 X161.71 Y161.55 E27.88741
G1 X161.286 Y161.685 E27.94661
G1 X160.527 Y161.907 E28.05182
G1 X159.555 Y162.143 E28.18489
G1 X158.731 Y162.283 E28.29608
G1 X157.788 Y162.392 E28.42238
G1 X157.018 Y162.452 E28.52513
G1 X156.236 Y162.489 E28.62928
G1 X155.509 Y162.5 E28.72601
G1 X76.602 Y162.5 E39.22384
G1 X75.994 Y162.491 E39.30474
G1 X75.254 Y162.458 E39.40329
G1 X74.526 Y162.404 E39.50041
G1 X73.814 Y162.335 E39.59558
G1 X72.825 Y162.191 E39.72854
G1 X71.689 Y161.924 E39.88379
G1 X71.156 Y161.772 E39.95753
G1 X70.422 Y161.545 E40.05975
G1 X69.482 Y161.206 E40.19269
G1 X68.433 Y160.721 E40.34644
G1 X67.536 Y160.249 E40.48129
G1 X67.202 Y160.062 E40.53222
G1 X66.35 Y159.539 E40.66522
G1 X65.539 Y158.947 E40.79881
G1 X65.2 Y158.678 E40.85638
G1 X64.428 Y158.029 E40.99056
G1 X63.694 Y157.351 E41.1235
G1 X63.131 Y156.748 E41.23325
G1 X62.619 Y156.148 E41.33819
G1 X62.209 Y155.64 E41.42504
G1 X61.613 Y154.837 E41.55808
G1 X61.022 Y153.882 E41.7075
G1 X60.59 Y153.098 E41.82659
G1 X60.379 Y152.692 E41.88746
G1 X59.954 Y151.787 E42.02048
G1 X59.562 Y150.726 E42.17096
G1 X59.31 Y149.922 E42.28306
G1 X59.179 Y149.47 E42.34566
G1 X58.939 Y148.499 E42.47873
G1 X58.757 Y147.331 E42.636
G1 X58.69 Y146.71 E42.7191
G1 X58.631 Y146.016 E42.81176
G1 X58.598 Y145.296 E42.90765
G1 X58.58 Y144.165 E43.05814
G1 X58.581 Y90.521 E50.19497
G1 X58.591 Y89.847 E50.28465
G1 X58.623 Y89.131 E50.38
G1 X58.69 Y88.266 E50.49542
G1 X58.725 Y87.919 E50.54182
G1 X58.958 Y86.468 E50.73734
G0 F6000 X59.581 Y90.535
G1 F1200 X59.591 Y89.861 E50.82702
G1 X59.62 Y89.203 E50.91464
G1 X59.657 Y88.691 E50.98294
G1 X59.72 Y88.019 E51.07273
G1 X59.934 Y86.685 E51.25248
G1 X60.016 Y86.315 E51.3029
G1 X60.221 Y85.526 E51.41135
G1 X60.383 Y84.981 E51.48699
G1 X60.758 Y83.914 E51.63746
G1 X60.871 Y83.637 E51.67726
G1 X61.324 Y82.66 E51.82053
G1 X61.55 Y82.227 E51.88551
G1 X61.825 Y81.731 E51.96096
G1 X62.032 Y81.378 E52.01541
G1 X62.551 Y80.572 E52.14295
G1 X62.915 Y80.083 E52.22405
G1 X63.342 Y79.55 E52.31491
G1 X63.73 Y79.09 E52.39497
G1 X64.379 Y78.384 E52.52255
G1 X65.085 Y77.732 E52.6504
G1 X65.82 Y77.109 E52.77859
G1 X66.577 Y76.52 E52.9062
G1 X67.639 Y75.847 E53.07347
G1 X68.325 Y75.463 E53.17806
G1 X69.143 Y75.047 E53.30015
G1 X69.437 Y74.912 E53.34319
G1 X70.771 Y74.398 E53.53339
G1 X71.516 Y74.167 E53.63716
G1 X71.897 Y74.058 E53.68988
G1 X72.829 Y73.832 E53.81747
G1 X73.628 Y73.7 E53.92521
G1 X74.465 Y73.604 E54.03729
G1 X75.224 Y73.545 E54.13857
G1 X75.941 Y73.511 E54.23407
G1 X76.668 Y73.5 E54.3308
G1 X155.545 Y73.5 E64.82464
G1 X156.155 Y73.509 E64.9058
G1 X156.837 Y73.54 E64.99663
G1 X157.91 Y73.625 E65.13983
G1 X158.274 Y73.664 E65.18853
G1 X159.223 Y73.806 E65.3162
G1 X160.189 Y74.036 E65.44831
G1 X160.721 Y74.187 E65.52188
G1 X161.437 Y74.408 E65.62157
G1 X162.339 Y74.735 E65.74922
G1 X163.192 Y75.127 E65.87411
G1 X163.922 Y75.505 E65.98348
G1 X164.359 Y75.745 E66.04981
G1 X165.179 Y76.241 E66.1773
G1 X165.995 Y76.836 E66.31166
G1 X166.727 Y77.426 E66.43674
G1 X167.048 Y77.698 E66.49272
G1 X167.754 Y78.348 E66.62039
G1 X168.246 Y78.873 E66.71611
G1 X168.745 Y79.456 E66.81821
G1 X169.173 Y79.986 E66.90884
G1 X169.744 Y80.756 E67.03637
G1 X170.263 Y81.598 E67.16797
G1 X170.666 Y82.328 E67.2789
G1 X170.889 Y82.756 E67.34311
G1 X171.296 Y83.624 E67.47065
G1 X171.644 Y84.568 E67.6045
G1 X171.89 Y85.35 E67.71357
G1 X172.021 Y85.801 E67.77605
G1 X172.249 Y86.732 E67.90357
G1 X172.41 Y87.774 E68.04384
G1 X172.476 Y88.385 E68.1256
G1 X172.533 Y89.053 E68.2148
G1 X172.564 Y89.721 E68.30376
G1 X172.582 Y90.835 E68.45199
G1 X172.582 Y105.974 E70.46609
G1 X172.619 Y108.562 E70.81044
G1 X172.726 Y111.088 E71.1468
G1 X172.901 Y113.556 E71.47597
G1 X173.15 Y116.065 E71.81141
G1 X173.463 Y118.517 E72.14027
G1 X173.861 Y121.045 E72.48074
G1 X174.312 Y123.474 E72.80942
G1 X174.839 Y125.927 E73.14321
G1 X175.244 Y127.608 E73.37325
G1 X175.43 Y128.548 E73.50073
G1 X175.536 Y129.502 E73.62844
G1 X175.562 Y130.093 E73.70714
G1 X175.581 Y131.243 E73.86016
G1 X175.58 Y142.834 E75.40223
G1 X175.57 Y143.539 E75.49603
G1 X175.516 Y144.497 E75.62369
G1 X175.383 Y145.446 E75.75118
G1 X175.171 Y146.382 E75.87886
G1 X174.882 Y147.296 E76.00639
G1 X174.518 Y148.183 E76.13395
G1 X174.081 Y149.037 E76.26157
G1 X173.575 Y149.851 E76.38909
G1 X173.002 Y150.62 E76.51667
G1 X172.611 Y151.077 E76.59669
G1 X171.189 Y152.654 E76.87919
G1 X169.352 Y154.807 E77.25572
G1 X168.484 Y155.847 E77.43594
G1 X167.84 Y156.557 E77.56347
G1 X167.368 Y157.01 E77.65051
G1 X166.791 Y157.517 E77.7527
G1 X166.253 Y157.964 E77.84575
G1 X165.491 Y158.546 E77.97332
G1 X164.522 Y159.153 E78.12544
G1 X163.854 Y159.527 E78.22729
G1 X163.034 Y159.944 E78.34968
G1 X162.716 Y160.09 E78.39623
G1 X161.407 Y160.597 E78.58299
G1 X160.646 Y160.834 E78.68903
G1 X160.253 Y160.946 E78.7434
G1 X158.862 Y161.25 E78.93282
G1 X158.578 Y161.294 E78.97106
G1 X157.71 Y161.395 E79.08732
G1 X156.94 Y161.455 E79.19007
G1 X156.221 Y161.489 E79.28583
G1 X155.494 Y161.5 E79.38256
G1 X76.617 Y161.5 E89.8764
G1 X76.009 Y161.491 E89.9573
G1 X75.328 Y161.46 E90.04799
G1 X74.6 Y161.406 E90.14511
G1 X73.918 Y161.34 E90.23627
G1 X72.97 Y161.201 E90.36374
G1 X71.963 Y160.962 E90.50144
G1 X71.116 Y160.716 E90.61878
G1 X70.724 Y160.592 E90.67348
G1 X69.822 Y160.264 E90.80117
G1 X68.893 Y159.834 E90.93736
G1 X68.344 Y159.549 E91.01965
G1 X67.691 Y159.189 E91.11886
G1 X66.874 Y158.686 E91.2465
G1 X66.161 Y158.163 E91.36414
G1 X65.506 Y157.635 E91.47607
G1 X65.077 Y157.269 E91.55109
G1 X64.374 Y156.616 E91.67874
G1 X63.884 Y156.09 E91.77438
G1 X63.397 Y155.52 E91.87412
G1 X62.987 Y155.012 E91.96097
G1 X62.416 Y154.241 E92.08862
G1 X61.895 Y153.394 E92.22091
G1 X61.478 Y152.637 E92.33589
G1 X61.267 Y152.231 E92.39677
G1 X60.86 Y151.363 E92.52431
G1 X60.515 Y150.422 E92.65765
G1 X60.36 Y149.936 E92.72552
G1 X60.14 Y149.191 E92.82886
G1 X59.911 Y148.26 E92.95642
G1 X59.751 Y147.224 E93.09588
G1 X59.684 Y146.603 E93.17898
G1 X59.629 Y145.941 E93.26735
G1 X59.598 Y145.279 E93.35552
G1 X59.58 Y144.165 E93.50375
G1 X59.581 Y90.535 E100.63871
G0 F6000 X60.581 Y90.55
G1 F1200 X60.591 Y89.876 E100.72839
G1 X60.617 Y89.275 E100.80843
G1 X60.654 Y88.763 E100.87672
G1 X60.715 Y88.119 E100.96278
G1 X60.911 Y86.901 E101.12691
G1 X60.993 Y86.531 E101.17733
G1 X61.179 Y85.811 E101.27626
G1 X61.341 Y85.266 E101.35191
G1 X61.684 Y84.292 E101.48929
G1 X61.797 Y84.015 E101.52909
G1 X62.211 Y83.123 E101.65992
G1 X62.437 Y82.69 E101.7249
G1 X62.687 Y82.237 E101.79374
G1 X62.894 Y81.884 E101.84818
G1 X63.392 Y81.114 E101.97018
G1 X63.701 Y80.702 E102.03869
G1 X64.107 Y80.195 E102.12511
G1 X64.495 Y79.735 E102.20517
G1 X65.116 Y79.061 E102.3271
G1 X65.732 Y78.495 E102.43839
G1 X66.467 Y77.872 E102.56658
G1 X67.191 Y77.311 E102.68843
G1 X68.127 Y76.72 E102.8357
G1 X68.813 Y76.336 E102.94029
G1 X69.56 Y75.956 E103.05179
G1 X69.854 Y75.821 E103.09484
G1 X71.072 Y75.351 E103.26852
G1 X71.515 Y75.211 E103.33033
G1 X72.172 Y75.019 E103.4214
G1 X73.482 Y74.733 E103.59979
G1 X73.778 Y74.688 E103.63962
G1 X74.542 Y74.601 E103.74192
G1 X75.301 Y74.542 E103.8432
G1 X75.956 Y74.511 E103.93044
G1 X76.683 Y74.5 E104.02717
G1 X155.53 Y74.5 E114.51702
G1 X156.14 Y74.509 E114.59818
G1 X156.763 Y74.537 E114.68115
G1 X157.463 Y74.589 E114.77454
G1 X158.168 Y74.659 E114.86879
G1 X159.074 Y74.796 E114.9907
G1 X159.916 Y74.998 E115.10589
G1 X160.448 Y75.149 E115.17947
G1 X161.136 Y75.362 E115.27529
G1 X161.996 Y75.676 E115.39709
G1 X162.738 Y76.018 E115.50579
G1 X163.154 Y76.23 E115.5679
G1 X163.877 Y76.622 E115.67732
G1 X164.661 Y77.097 E115.79927
G1 X165.372 Y77.617 E115.91646
G1 X165.842 Y77.992 E115.99646
G1 X166.402 Y78.461 E116.09364
G1 X167.075 Y79.083 E116.21556
G1 X167.495 Y79.534 E116.29755
G1 X167.967 Y80.084 E116.39397
G1 X168.395 Y80.614 E116.4846
G1 X168.939 Y81.351 E116.60647
G1 X169.391 Y82.086 E116.72127
G1 X169.632 Y82.517 E116.78696
G1 X170.002 Y83.218 E116.89242
G1 X170.389 Y84.049 E117.01438
G1 X170.691 Y84.873 E117.13113
G1 X170.929 Y85.629 E117.23658
G1 X171.06 Y86.08 E117.29906
G1 X171.277 Y86.97 E117.42093
G1 X171.416 Y87.881 E117.54354
G1 X171.482 Y88.492 E117.6253
G1 X171.536 Y89.128 E117.71021
G1 X171.564 Y89.739 E117.79159
G1 X171.582 Y90.835 E117.93742
G1 X171.582 Y105.989 E119.95352
G1 X171.619 Y108.583 E120.29866
G1 X171.727 Y111.131 E120.63795
G1 X171.906 Y113.655 E120.97459
G1 X172.156 Y116.18 E121.31216
G1 X172.475 Y118.668 E121.64587
G1 X172.873 Y121.201 E121.987
G1 X173.328 Y123.65 E122.31839
G1 X173.869 Y126.167 E122.6609
G1 X174.272 Y127.842 E122.8901
G1 X174.448 Y128.741 E123.01198
G1 X174.544 Y129.652 E123.13385
G1 X174.562 Y130.111 E123.19496
G1 X174.581 Y131.243 E123.34558
G1 X174.58 Y142.82 E124.88579
G1 X174.57 Y143.525 E124.9796
G1 X174.517 Y144.44 E125.10153
G1 X174.384 Y145.346 E125.22336
G1 X174.173 Y146.238 E125.34531
G1 X173.885 Y147.108 E125.46723
G1 X173.523 Y147.949 E125.58904
G1 X173.088 Y148.756 E125.71101
G1 X172.585 Y149.522 E125.83293
G1 X171.869 Y150.408 E125.98448
G1 X170.411 Y152.025 E126.27414
G1 X168.613 Y154.132 E126.64265
G1 X167.716 Y155.207 E126.82892
G1 X167.099 Y155.884 E126.95078
G1 X166.697 Y156.268 E127.02474
G1 X166.152 Y156.748 E127.12136
G1 X165.614 Y157.195 E127.21442
G1 X164.884 Y157.749 E127.33634
G1 X164.034 Y158.281 E127.46974
G1 X163.366 Y158.655 E127.5716
G1 X162.617 Y159.035 E127.68333
G1 X162.299 Y159.181 E127.72989
G1 X161.104 Y159.644 E127.90039
G1 X160.372 Y159.872 E128.00239
G1 X159.979 Y159.984 E128.05675
G1 X158.709 Y160.262 E128.22972
G1 X158.425 Y160.306 E128.26795
G1 X157.633 Y160.398 E128.37403
G1 X156.863 Y160.458 E128.47678
G1 X156.206 Y160.489 E128.56428
G1 X155.479 Y160.5 E128.66102
G1 X76.632 Y160.5 E139.15086
G1 X76.024 Y160.491 E139.23176
G1 X75.402 Y160.463 E139.3146
G1 X74.674 Y160.409 E139.41171
G1 X74.023 Y160.346 E139.49873
G1 X73.116 Y160.211 E139.62073
G1 X72.237 Y160 E139.74099
G1 X71.417 Y159.762 E139.85459
G1 X71.025 Y159.638 E139.90929
G1 X70.164 Y159.324 E140.03121
G1 X69.354 Y158.946 E140.15013
G1 X68.513 Y158.504 E140.27653
G1 X68.179 Y158.317 E140.32746
G1 X67.4 Y157.835 E140.44933
G1 X66.782 Y157.38 E140.55143
G1 X66.155 Y156.874 E140.65862
G1 X65.726 Y156.508 E140.73364
G1 X65.056 Y155.883 E140.85554
G1 X64.637 Y155.432 E140.93744
G1 X64.175 Y154.892 E141.03199
G1 X63.765 Y154.384 E141.11884
G1 X63.221 Y153.646 E141.24082
G1 X62.768 Y152.907 E141.35614
G1 X62.365 Y152.176 E141.46719
G1 X62.154 Y151.77 E141.52806
G1 X61.767 Y150.939 E141.65002
G1 X61.467 Y150.118 E141.76631
G1 X61.312 Y149.632 E141.83418
G1 X61.1 Y148.913 E141.9339
G1 X60.884 Y148.022 E142.05588
G1 X60.746 Y147.116 E142.1778
G1 X60.679 Y146.495 E142.2609
G1 X60.626 Y145.866 E142.34488
G1 X60.598 Y145.261 E142.42545
G1 X60.58 Y144.165 E142.57128
G1 X60.581 Y90.55 E149.70425
G1 F2700 E144.70425
G0 F6000 X89.775 Y102.988
G0 X88.044 Y106.168
G1 F2700 E149.70425
G1 F1200 X88.036 Y124.337 E152.12147
G1 X87.773 Y124.886 E152.20245
G1 X87.623 Y125.393 E152.2728
G1 X87.545 Y126.132 E152.37166
G1 X87.55 Y129.331 E152.79726
G1 X87.591 Y129.859 E152.86771
G1 X87.71 Y130.374 E152.93804
G1 X87.906 Y130.865 E153.00837
G1 X88.174 Y131.321 E153.07874
G1 X88.577 Y131.803 E153.16232
G1 X89.284 Y132.509 E153.29525
G1 X89.685 Y132.853 E153.36554
G1 X90.134 Y133.133 E153.43594
G1 X90.619 Y133.342 E153.5062
G1 X91.131 Y133.476 E153.57661
G1 X91.755 Y133.532 E153.65996
G1 X100.527 Y133.537 E154.82699
G1 X101.054 Y133.497 E154.89731
G1 X101.57 Y133.379 E154.96773
G1 X102.341 Y133.046 E155.07946
G1 X139.921 Y133.045 E160.07913
G1 X140.448 Y133.005 E160.14944
G1 X140.964 Y132.886 E160.21989
